X:5
T:
T:Variation III.
M:3/4
L:1/16
K:Bb bass
%1
f3e | dBd fdf bfb d'ff c'ff | bd'c'bag fbagfe dfedcB |
w:l1p238
%2
Afffff efffff aff c'ff | bab d'^c'd' f'=e'_e' d'=c'b agf f=e_e | dBd fdf bdf bfb d'ff c'ff |
w:l2p238
%3
bd'c'bag fbagfe dfedcB | Aff fff eff fff aff c'ff | bff d'ff b2 z2 ||
w:l3p238
%4
d'3c' | c'c'c' c'f' =e'e'e' e'>g b4 | aaa af' c'c'c' c'>f a4 | d'd'd' d'g bbb b=e ggg gc |
w:l4p238
%5
f^fg _a=ab =bc'^c' d'e'=e' f'3d' | c'c'c' c'f' =e'e'e' e'>g b4 | aaa af' c'c'c' c'>f a4 |
w:l5p238
%6
d'd'd' d'g bbb b=e ggg "rall."gc' | f8 "tempo I"f3_e || dBd fdf bdf bfb d'ff c'ff |
w:l6p238
%7
bd'c'bag fbagfe dfedcB | Afffff efffff aff c'ff |
w:l7p238
%8
bab d'^c'd' f'=e'_e' d'=c'b agf f=e_e | dBd fdf bdf bfb d'ff c'ff |
w:l8p238
%9
bd'c' bag fba gfe dfe dcB | Afffff efffff aff c'ff | bff d'ff b2 z2 |]
w:l9p238

